X:46
T:Mary Shea's Promise to Her Dog
C:Terence "Cuz" Teahan
B:Terry "Cuz" Teahan "Sliabh Luachra on Parade" 1980
Z:Patrick Cavanagh
M:12/8
L:1/8
R:Slide
K:D
ABc | d2B cBA G2E G2A | B2d d2B d3 Bcd | 
e2d B2A G2E G2f | gfe f2d e3 :| 
e2A | Bcd e2f g2e e2d | B2d d2B d3 d2A | 
Bcd e2f g2f g2a | bag a2f e3 e2A | 
Bcd e2f g2e ged | B2d d2B d3 g2a | 
bag agf gBf e2d | B2e e2d e3 e3 || 

